icons/outline/h-3.svg

<!--
tags: [header, text, editor, h3, heading, typography]
category: Text
version: "1.16"
unicode: "ec96"
-->
<svg
  xmlns="http://www.w3.org/2000/svg"
  width="24"
  height="24"
  viewBox="0 0 24 24"
  fill="none"
  stroke="currentColor"
  stroke-width="2"
  stroke-linecap="round"
  stroke-linejoin="round"
>
  <path d="M19 14a2 2 0 1 0 -2 -2m0 4a2 2 0 1 0 2 -2m-15 -8v12m8 -12v12m-1 0h2m-10 0h2m-1 -6h8m-9 -6h2m6 0h2" />
</svg>

<!--
tags: [header, text, editor, h3, heading, typography]
category: Text
version: "1.16"
unicode: "ec96"
-->
<svg
  xmlns="http://www.w3.org/2000/svg"
  width="24"
  height="24"
  viewBox="0 0 24 24"
  fill="none"
  stroke="currentColor"
  stroke-width="2"
  stroke-linecap="round"
  stroke-linejoin="round"
>
    <path d="M19 14a2 2 0 1 0 -2 -2M17 16a2 2 0 1 0 2 -2M4 6v12M12 6v12M11 18h2M3 18h2M4 12h8M3 6h2M11 6h2" />
</svg>
